src/assets/imgs/platform-2.svg

<svg width="72" height="60" viewBox="0 0 72 60" fill="none" xmlns="http://www.w3.org/2000/svg">
<path d="M66.9474 27.1141C65.1225 25.2294 63.013 23.6979 60.7919 22.3275C60.5878 22.1966 60.5158 22.0654 60.466 21.8339C60.1247 20.3123 60.262 18.7704 60.2568 17.2388C60.2379 14.0846 60.2671 10.9307 60.2379 7.78698C60.2071 5.459 58.4165 3.68557 56.0686 3.56488C55.9262 3.55481 55.7839 3.55481 55.6415 3.55481C47.7212 3.55481 39.8078 3.55481 31.8927 3.56488C31.0591 3.56488 30.2856 3.32274 29.4933 3.15145C26.6514 2.54695 23.9107 1.61985 21.1562 0.732974C20.4393 0.501351 19.7018 0.339979 18.9798 0.148438C18.798 0.148438 18.6093 0.148438 18.4258 0.148438C18.4721 0.249456 18.4927 0.37001 18.563 0.460978C19.3159 1.39814 20.0791 2.33514 20.8406 3.2723C20.9024 3.35306 20.9624 3.43338 21.055 3.55436C20.8818 3.55436 20.7703 3.55436 20.6486 3.55436C16.4898 3.55436 12.3215 3.55436 8.15293 3.55436C5.89587 3.55436 4.12196 5.01543 3.75082 7.16174C3.70022 7.44396 3.68993 7.72587 3.68993 8.01845C3.68993 11.5957 3.68461 15.1728 3.69508 18.7603C3.69508 19.0222 3.62372 19.1633 3.39013 19.274C3.05414 19.435 2.73429 19.6268 2.41923 19.8379C2.82587 19.8183 3.23749 19.7881 3.68993 19.7573C3.68993 19.878 3.68993 19.9792 3.68993 20.0698C3.68993 21.4202 3.68462 22.7705 3.68993 24.1103C3.69508 24.3119 3.62905 24.4431 3.46097 24.5537C2.87647 24.9569 2.30209 25.35 1.73782 25.763C1.30082 26.0854 0.889197 26.418 0.467285 26.7505C0.467285 26.7908 0.467285 26.8315 0.467285 26.8715C1.42773 27.0629 2.38852 27.2644 3.34949 27.4457C3.61875 27.4959 3.69508 27.6168 3.69508 27.889C3.68993 32.9578 3.68993 38.0161 3.68993 43.0849C3.68993 47.1253 3.68462 51.1765 3.68993 55.2269C3.68993 57.3934 5.12341 59.1266 7.23811 59.5199C7.52264 59.5797 7.82775 59.6005 8.1224 59.6005C24.0136 59.6005 39.9038 59.6005 55.8044 59.6005C58.305 59.6005 60.1968 57.8062 60.2362 55.3378C60.2774 52.8693 60.2465 50.4104 60.2465 47.9518C60.2465 45.0192 60.2465 42.0867 60.2465 39.1445C60.2465 39.0237 60.2465 38.9131 60.2465 38.7719C61.2687 38.9735 62.1177 39.4069 62.7626 40.1728C63.8259 41.412 64.8721 42.6616 65.9252 43.9213C66.4586 44.5664 66.9817 45.2214 67.5219 45.876C67.678 46.0576 67.8615 46.2089 68.0502 46.3899C68.1051 46.3194 68.1411 46.2995 68.1565 46.2592C69.0209 44.4148 69.9213 42.6112 70.7394 40.7373C71.0996 39.9109 71.3586 38.9834 71.5421 38.0873C71.7753 36.9486 71.5472 35.7896 71.2831 34.671C70.5868 31.7288 69.0312 29.2601 66.9474 27.1141ZM69.3879 39.4578C69.0929 40.9594 68.8082 42.4505 68.1308 43.8714C68.0296 43.6498 67.9335 43.4282 67.8221 43.2168C67.0485 41.7056 66.0521 40.3548 65.0162 39.015C64.0592 37.7858 62.8294 36.9392 61.4968 36.1933C58.8487 34.7116 56.0326 33.604 53.1855 32.5657C53.1358 32.5458 53.074 32.5355 53.0088 32.5561C54.8028 33.5236 56.5968 34.4911 58.3959 35.4584C58.3805 35.4882 58.3668 35.5285 58.3513 35.5589C57.3394 35.2872 56.3121 35.0452 55.3105 34.7331C53.7395 34.2691 54.218 34.4913 50.6129 33.4128C44.0818 31.6494 43.039 32.8184 43.039 32.8184C49.3266 33.473 50.5683 34.7631 53.8115 36.426C53.6486 36.8485 53.4959 37.2623 53.3433 37.6753C53.11 38.2996 52.8802 38.9244 52.6315 39.5487C52.4789 39.9421 52.4995 40.3049 52.647 40.698C53.9436 44.0536 55.2951 47.4086 56.5814 50.7647C56.6534 50.946 56.6929 51.1575 56.7083 51.3492V57.1229C56.698 57.2337 56.698 57.3647 56.6483 57.476C56.6483 57.4858 56.6328 57.4959 56.6277 57.5064C56.0583 58.1708 55.3465 58.3222 54.4667 58.3222C43.924 58.2921 33.3814 58.3126 22.8439 58.3126C17.8058 58.3126 12.7684 58.3126 7.73583 58.3027C7.48165 58.3027 7.21735 58.2922 6.97347 58.2519C5.794 58.0605 5.09785 57.2344 5.02135 55.9143C4.99597 55.35 5.02135 54.7856 5.02135 54.2115C5.02135 54.1405 5.05171 54.0599 5.08738 53.9896C6.38365 51.4905 7.39023 48.8706 8.38652 46.2504C8.4625 46.0492 8.53917 45.8578 8.60023 45.6462C7.70547 47.2987 6.43458 48.6287 5.08241 49.8886C5.04193 49.8785 5.00608 49.8681 4.97092 49.8585C5.02666 49.0323 5.03696 48.1958 5.15376 47.3693C5.61118 44.1148 6.09928 40.8602 6.57693 37.6052C6.57693 37.5851 6.56682 37.5649 6.54658 37.4844C6.04852 39.1167 5.56041 40.6992 5.07744 42.2709C5.06217 42.2709 5.04193 42.2709 5.02152 42.2709C5.02152 42.11 5.02152 41.9582 5.02152 41.807C5.02152 38.7738 5.01655 35.751 5.02152 32.7184C5.02152 32.5364 5.06234 32.3347 5.14329 32.1737C5.83465 30.663 6.54659 29.1609 7.24789 27.6595C7.44118 27.2565 7.29847 26.874 6.86164 26.7728C6.14971 26.6217 5.43847 26.5008 4.7267 26.3902C4.26912 26.3094 3.81153 26.2691 3.27282 26.2084C3.4457 26.0976 3.55753 26.0275 3.66935 25.9469C7.23793 23.5986 10.4201 20.8278 13.226 17.6129C13.3682 17.4518 13.6376 17.2905 13.4905 17.0184C13.3533 16.7668 13.0533 16.8068 12.8247 16.8572C11.9196 17.0488 11.0199 17.2603 10.1201 17.4923C9.68794 17.5932 9.27118 17.7441 8.82371 17.8347C11.95 15.2049 15.0764 12.5745 18.2388 9.91453C15.5235 8.05013 12.8341 6.20598 10.1452 4.36198C10.1551 4.33181 10.1656 4.3117 10.1755 4.28137C15.3963 5.19826 20.6177 6.10525 25.9139 7.02214C24.2863 5.27902 22.7169 3.59609 21.0945 1.86289C21.2265 1.89306 21.2986 1.90326 21.3586 1.92323C26.7217 3.69682 32.0745 5.48048 37.4427 7.22345C42.576 8.88611 47.4468 11.1029 51.8889 14.1762C53.6846 15.4159 55.3105 16.8468 56.5762 18.6299C57.2022 19.5166 57.6945 20.4642 57.9191 21.5423C57.9329 21.6231 57.8883 21.784 57.8231 21.8246C57.3857 22.0663 57.0856 22.429 56.8506 22.8523C56.4339 23.6282 56.2264 24.4549 56.2607 25.3313C56.2812 25.815 56.0994 26.0671 55.6003 26.0671C55.1939 26.0671 54.7822 26.0268 54.3912 25.9256C53.8715 25.7949 53.3639 25.6031 52.8511 25.4323C52.7636 25.4121 52.6881 25.3821 52.6007 25.3515C53.7292 26.0772 54.8783 26.7221 56.2401 26.8428C56.8301 26.8931 57.4303 26.8526 57.9089 26.4197C58.0666 26.2787 58.1267 26.1374 58.0409 25.916C57.7957 25.2709 57.9689 24.7067 58.4577 24.2228C58.6309 24.052 58.7715 24.0213 59.0065 24.152C61.303 25.5225 63.428 27.0944 65.3095 28.9891C66.4071 30.0874 67.3779 31.2767 68.1925 32.6071C69.4994 34.7321 69.8647 37.0191 69.3879 39.4578Z" fill="#8A8A8E"/>
<path d="M39.0194 22.9321C38.1845 22.8012 37.3496 22.6501 36.5198 22.4791C36.3171 22.4385 36.2192 22.4688 36.1024 22.6402C35.8069 23.0532 35.3688 23.1842 34.8809 23.0933C34.4326 23.0129 34.046 22.751 34.0048 22.3074C33.9687 21.8643 33.7093 21.8135 33.3932 21.7329C33.2919 21.7132 33.1905 21.6926 33.0977 21.6523C32.9448 21.5818 32.8435 21.6324 32.7318 21.7533C32.0086 22.5896 31.7234 23.5466 31.9673 24.6348C32.3247 26.2371 33.8725 27.3659 35.6746 27.3659C35.6849 27.3858 35.6901 27.4158 35.6952 27.4467C36.2192 27.3158 36.7638 27.245 37.2534 27.0435C38.8322 26.4185 39.6928 24.8972 39.4128 23.3351C39.3716 23.093 39.2909 22.9822 39.0194 22.9321Z" fill="#8A8A8E"/>
</svg>

<svg width="72" height="60" fill="none" xmlns="http://www.w3.org/2000/svg"><path d="M66.947 27.114c-1.825-1.885-3.934-3.416-6.155-4.787-.204-.13-.276-.262-.326-.493-.341-1.522-.204-3.064-.21-4.595-.018-3.154.011-6.308-.018-9.452-.03-2.328-1.822-4.101-4.17-4.222-.142-.01-.284-.01-.426-.01-7.92 0-15.834 0-23.75.01-.833 0-1.606-.242-2.399-.414-2.842-.604-5.582-1.531-8.337-2.418C20.44.501 19.702.34 18.98.148h-.554c.046.101.067.222.137.313.753.937 1.516 1.874 2.278 2.811l.214.282H8.153c-2.257 0-4.031 1.461-4.402 3.608-.05.282-.061.564-.061.856 0 3.578-.005 7.155.005 10.742 0 .262-.071.403-.305.514a7.815 7.815 0 0 0-.97.564c.406-.02.817-.05 1.27-.08v.312c0 1.35-.005 2.7 0 4.04a.46.46 0 0 1-.229.444c-.585.403-1.159.796-1.723 1.209-.437.322-.849.655-1.27.987v.122c.96.19 1.92.392 2.881.574.27.05.346.17.346.443-.005 5.069-.005 10.127-.005 15.196 0 4.04-.005 8.091 0 12.142 0 2.166 1.433 3.9 3.548 4.293.285.06.59.08.884.08h47.682c2.501 0 4.393-1.794 4.432-4.262.041-2.469.01-4.928.01-7.386v-9.18c1.023.202 1.872.635 2.517 1.4 1.063 1.24 2.11 2.49 3.162 3.75.534.644 1.057 1.3 1.597 1.954.156.182.34.333.528.514.055-.07.091-.09.106-.13.865-1.845 1.765-3.649 2.583-5.523.36-.826.62-1.754.803-2.65.233-1.138.005-2.297-.259-3.416-.696-2.942-2.252-5.41-4.336-7.557zm2.44 12.344c-.294 1.501-.579 2.992-1.256 4.413-.101-.221-.198-.443-.309-.654-.773-1.511-1.77-2.862-2.806-4.202-.957-1.23-2.187-2.076-3.52-2.822-2.647-1.481-5.463-2.589-8.31-3.627a.26.26 0 0 0-.177-.01c1.794.968 3.588 1.935 5.387 2.902-.016.03-.03.07-.045.1-1.012-.27-2.039-.513-3.04-.825-1.572-.464-1.093-.242-4.698-1.32-6.531-1.764-7.574-.595-7.574-.595 6.288.655 7.53 1.945 10.773 3.608-.163.422-.316.836-.469 1.25-.233.624-.463 1.248-.712 1.873-.152.393-.132.756.016 1.149 1.297 3.356 2.648 6.71 3.934 10.067.072.181.112.392.127.584v5.774c-.01.11-.01.242-.06.353 0 .01-.015.02-.02.03-.57.665-1.282.816-2.161.816-10.543-.03-21.086-.01-31.623-.01-5.038 0-10.076 0-15.108-.01-.254 0-.519-.01-.763-.05-1.179-.192-1.875-1.018-1.952-2.338-.025-.564 0-1.128 0-1.703 0-.07.03-.151.066-.221 1.297-2.5 2.303-5.12 3.3-7.74.075-.2.152-.392.213-.604-.895 1.653-2.165 2.983-3.518 4.243l-.111-.03c.056-.827.066-1.663.183-2.49.457-3.254.945-6.509 1.423-9.764 0-.02-.01-.04-.03-.12-.498 1.632-.987 3.214-1.47 4.786h-.055v-.464c0-3.033-.005-6.056 0-9.089 0-.182.04-.383.121-.544.692-1.511 1.404-3.013 2.105-4.514.193-.404.05-.786-.386-.887a39.37 39.37 0 0 0-2.135-.383c-.458-.08-.915-.12-1.454-.182.173-.11.285-.18.396-.261a46.643 46.643 0 0 0 9.557-8.334c.142-.161.412-.322.264-.595-.137-.251-.437-.211-.665-.16-.905.19-1.805.402-2.705.634-.432.101-.849.252-1.296.343l9.415-7.92c-2.716-1.865-5.405-3.709-8.094-5.553.01-.03.02-.05.03-.08 5.221.916 10.443 1.823 15.739 2.74-1.628-1.743-3.197-3.426-4.82-5.16.133.031.205.041.265.061 5.363 1.774 10.715 3.557 16.084 5.3 5.133 1.663 10.004 3.88 14.446 6.953 1.796 1.24 3.421 2.67 4.687 4.454.626.887 1.118 1.834 1.343 2.912.014.081-.03.242-.096.283-.437.241-.737.604-.972 1.027a4.771 4.771 0 0 0-.59 2.48c.02.483-.162.735-.66.735-.407 0-.819-.04-1.21-.141-.52-.131-1.027-.323-1.54-.494-.087-.02-.163-.05-.25-.08 1.128.725 2.277 1.37 3.64 1.49.59.051 1.19.01 1.668-.422.158-.141.218-.283.132-.504-.245-.645-.072-1.21.417-1.693.173-.171.314-.202.549-.071 2.296 1.37 4.421 2.942 6.303 4.837 1.097 1.098 2.068 2.288 2.882 3.618 1.307 2.125 1.673 4.412 1.196 6.85z" fill="#8A8A8E"/><path d="M39.02 22.932c-.836-.13-1.67-.282-2.5-.453-.203-.04-.3-.01-.418.161-.295.413-.733.544-1.221.453-.448-.08-.835-.342-.876-.786-.036-.443-.296-.493-.612-.574a1.418 1.418 0 0 1-.295-.08c-.153-.071-.255-.02-.366.1-.723.837-1.009 1.794-.765 2.882.358 1.602 1.906 2.73 3.708 2.73.01.02.015.05.02.082.524-.131 1.069-.202 1.558-.403 1.58-.625 2.44-2.147 2.16-3.709-.041-.242-.122-.353-.394-.403z" fill="#8A8A8E"/></svg>
